X:109
T:High Part of the Road
M:6/8
K:G
F:http://blackrosetheband.googlepages.com/ABCTUNES.ABC May 2009
L:1/8
A |\
"G"BAB cAc | d2d cAG | "D"F2D DED | A,DG FGA |
"G"BAB cBc | d^cd d2e | "D"fed cAF |1 "G"AGF G2 :|2 "G"AGF GB ||
|: d |\
"G"gfg def | gfg bag | "D"fef dfa | afd cAF |
"G"gfg def | gfg bag | "D"fed cAF |1 "G"AGF GB :|2 "G"AGF G2 |]
